packages/icons/src/components/Icon/assets/default-outline/doc-paper.svg

<svg width="20" height="20" viewBox="0 0 20 20" fill="none" xmlns="http://www.w3.org/2000/svg">
<path fill-rule="evenodd" clip-rule="evenodd" d="M5.25939 3.5C5.2116 3.5 5.17285 3.53874 5.17285 3.58654V16.4135C5.17285 16.4613 5.2116 16.5 5.25939 16.5H14.7402C14.788 16.5 14.8267 16.4613 14.8267 16.4135V9.72115C14.8267 8.74935 14.0389 7.96154 13.0671 7.96154H11.9517C11.0755 7.96154 10.3652 7.25122 10.3652 6.375V5.25962C10.3652 4.28781 9.57735 3.5 8.60554 3.5H5.25939ZM5.25939 2C4.38317 2 3.67285 2.71032 3.67285 3.58654V16.4135C3.67285 17.2897 4.38317 18 5.25939 18H14.7402C15.6164 18 16.3267 17.2897 16.3267 16.4135V9.44231C16.3267 5.33204 12.9947 2 8.88439 2H5.25939ZM11.69 4.20271C11.8035 4.53415 11.8652 4.88968 11.8652 5.25962V6.375C11.8652 6.42279 11.9039 6.46154 11.9517 6.46154H13.0671C13.437 6.46154 13.7926 6.52317 14.124 6.63671C13.5705 5.60527 12.7214 4.75616 11.69 4.20271ZM6.46131 12.2308C6.46131 11.8166 6.7971 11.4808 7.21131 11.4808H12.7882C13.2024 11.4808 13.5382 11.8166 13.5382 12.2308C13.5382 12.645 13.2024 12.9808 12.7882 12.9808H7.21131C6.7971 12.9808 6.46131 12.645 6.46131 12.2308ZM6.46131 14.4615C6.46131 14.0473 6.7971 13.7115 7.21131 13.7115H9.99977C10.414 13.7115 10.7498 14.0473 10.7498 14.4615C10.7498 14.8758 10.414 15.2115 9.99977 15.2115H7.21131C6.7971 15.2115 6.46131 14.8758 6.46131 14.4615Z" fill="#727683"/>
</svg>

<svg xmlns="http://www.w3.org/2000/svg" width="20" height="20" fill="none" viewBox="0 0 20 20">
    <path fill="#727683" fill-rule="evenodd" d="M5.26 3.5a.087.087 0 0 0-.087.087v12.827c0 .047.039.086.086.086h9.481a.086.086 0 0 0 .087-.087V9.721a1.76 1.76 0 0 0-1.76-1.76h-1.115c-.876 0-1.587-.71-1.587-1.586V5.26a1.76 1.76 0 0 0-1.76-1.76zm0-1.5c-.877 0-1.587.71-1.587 1.587v12.827c0 .876.71 1.586 1.586 1.586h9.481c.876 0 1.587-.71 1.587-1.587v-6.97A7.44 7.44 0 0 0 8.884 2zm6.43 2.203c.114.331.175.687.175 1.057v1.115c0 .048.039.087.087.087h1.115c.37 0 .726.061 1.057.175a5.97 5.97 0 0 0-2.434-2.434M6.461 12.23a.75.75 0 0 1 .75-.75h5.577a.75.75 0 0 1 0 1.5H7.211a.75.75 0 0 1-.75-.75m0 2.23a.75.75 0 0 1 .75-.75H10a.75.75 0 1 1 0 1.5H7.21a.75.75 0 0 1-.75-.75" clip-rule="evenodd"/>
</svg>
